icons/Color/24/gimp-prefs-folders-environ.svg

<svg height="24" viewBox="0 0 24 24" width="24" xmlns="http://www.w3.org/2000/svg" xmlns:xlink="http://www.w3.org/1999/xlink"><linearGradient id="a" gradientTransform="matrix(.60072171 0 0 .60098717 -1.832228 23.944582)" gradientUnits="userSpaceOnUse" x1="18.112709" x2="15.514889" y1="31.36775" y2="6.18025"><stop offset="0" stop-color="#424242"/><stop offset="1" stop-color="#777"/></linearGradient><linearGradient id="b" gradientTransform="matrix(.58583149 0 0 .59874372 -1.306445 24.343264)" gradientUnits="userSpaceOnUse" x1="22.175976" x2="22.065331" y1="36.987999" y2="32.050499"><stop offset="0" stop-color="#6194cb"/><stop offset="1" stop-color="#729fcf"/></linearGradient><linearGradient id="c" gradientTransform="matrix(.77184067 0 0 .50168839 -1.887946 23.335751)" gradientUnits="userSpaceOnUse" x1="13.035696" x2="12.853771" y1="32.567184" y2="46.689312"><stop offset="0" stop-color="#fff" stop-opacity=".796078"/><stop offset="1" stop-color="#fff" stop-opacity=".215686"/></linearGradient><linearGradient id="d" gradientTransform="matrix(.52865572 0 0 .82235256 1245.4619 280.96906)" gradientUnits="userSpaceOnUse" x1="33.5" x2="32.615303" y1="38.100506" y2="30.145555"><stop offset="0" stop-color="#babdb6"/><stop offset="1" stop-color="#eeeeec"/></linearGradient><linearGradient id="e" gradientTransform="matrix(.52865572 0 0 .82235256 1245.4619 280.96906)" gradientUnits="userSpaceOnUse" x1="29.375" x2="32" y1="17.625" y2="36.6875"><stop offset="0" stop-color="#888a85"/><stop offset="1" stop-color="#555753"/></linearGradient><path d="m.88410381 47.195223c.013093.250194.27627479.500388.52635809.500388h18.8188211c.250082 0 .487072-.250194.473979-.500388l-.562542-16.362918c-.0131-.250193-.276269-.500392-.526352-.500392h-7.972102c-.291384 0-.741575-.189664-.841998-.665071l-.367276-1.738699c-.0934-.44213-.5299647-.623756-.780048-.623756h-8.87798108c-.25008813 0-.48707765.250193-.47398438.500387z" fill="#fff" stroke="url(#a)" stroke-linecap="round" stroke-linejoin="round" stroke-width=".600854" transform="translate(0 -24)"/><path d="m.003854 0h23.996145v23.996084h-23.996145z" fill="#bebebe" opacity="0"/><g transform="matrix(1.1248197 0 0 1.1250004 -286.38397 -46.361268)"><path d="m266.78786 41.808831c-1.46714 0-2.72895 1.42916-3.22149 3.4436-.23837-.0891-.48756-.15419-.74342-.15419-1.75091 0-3.17193 2.21048-3.17193 4.93411s1.42102 4.93412 3.17193 4.93412c.40854 0 .79767-.14065 1.15643-.35978.57816 1.21141 1.50044 2.00449 2.54416 2.00448.81236 0 1.55325-.47705 2.11462-1.25922.30989.27719.67441.43687 1.05731.43687.57508 0 1.08899-.37077 1.47032-.95084.20803.082.41996.12849.6443.12849 1.45908 0 2.64327-1.84207 2.64327-4.11176 0-1.34066-.41838-2.53865-1.05731-3.28941 0-2.2697-1.18419-4.11177-2.64327-4.11177-.44522 0-.85432.18544-1.22252.48827-.62731-1.2942-1.62091-2.13297-2.7424-2.13297z" style="fill-rule:evenodd;stroke-width:1.197655;stroke-linecap:round;stroke-linejoin:round;fill:url(#d);stroke:url(#e)"/><path d="m33 21.583984c-2.322807 0-4.306477 1.454315-5.080078 3.488282a1.0838078 1.0838078 0 0 1 -1.267578.667968c-.400612-.09628-.78649-.15625-1.152344-.15625-2.725648 0-4.916016 2.190367-4.916016 4.916016s2.190369 4.916016 4.916016 4.916016c.612912 0 1.213691-.134635 1.791016-.361328a1.0838078 1.0838078 0 0 1 1.267578.361328c.899781 1.211976 2.320039 2 3.941406 2 1.263934 0 2.40534-.47283 3.277344-1.253907a1.0838078 1.0838078 0 0 1 1.263672-.132812c.423728.243657.928392.386718 1.458984.386719.788379 0 1.485054-.321167 2.023438-.847657a1.0838078 1.0838078 0 0 1 1.023437-.27539c.318379.08062.625137.123047.953125.123047 2.173636 0 3.916016-1.742362 3.916016-3.916016 0-1.279551-.620635-2.418873-1.56836-3.134766a1.0838078 1.0838078 0 0 1 -.43164-.865234c0-2.173656-1.742372-3.916016-3.916016-3.916016-.648728 0-1.241801.170095-1.806641.46875a1.0838078 1.0838078 0 0 1 -1.371093-.30664c-.990966-1.314286-2.548223-2.16211-4.322266-2.16211z" fill="none" stroke="#fff" stroke-linecap="round" stroke-linejoin="round" stroke-width="1.840081" transform="matrix(.49612542 0 0 .80988198 250.43197 25.318451)"/><g transform="matrix(.9980455 0 0 .9980455 259.06782 39.229541)"><path d="m5.999993 7.999994 3.000007.000006v1h-2v1.000001h1v.999999h-1v1.043868l2-.043868v1l-3.000007-.000013zm3.974455 0 1.025552.000006 1.000001 2.521449v-2.521449l1.027867.000007v4.999993h-1.027867l-1.000001-2.521449v2.521449l-1.025552-.000013z"/><path d="m4.743101 8.24532v.6358942c-.218841-.1183525-.4253112-.2065817-.6194094-.2646875-.194103-.0580975-.3815436-.0871484-.5623218-.0871534-.3139884.000005-.556614.068866-.727878.206585-.1693632.1377275-.2540448.3335525-.2540436.5874759-.0000012.2130441.056136.3744383.168411.4841841.1141758.1075992.3292086.1947517.6450996.2614587l.3482394.0807c.4300644.09253.7469052.256082.9505236.490639.2055156.232406.3082746.544436.3082782.936085-.0000036.466969-.1389186.82096-.4167462 1.061976-.2759304.241015-.681258.361522-1.2159846.361523-.2017146-.000001-.4167474-.025823-.6451002-.077469-.2264514-.051647-.461466-.12804-.7050426-.229181v-.671401c.2340618.148484.4633674.260384.6879162.335701.224547.07532.4452882.112977.6622266.112976.329208.000001.5832516-.07316.7621314-.219497.1788744-.14633.2683128-.355067.2683158-.626211-.000003-.23671-.064703-.421775-.1941012-.555196-.1275-.133417-.3377754-.233481-.630828-.300194l-.3510942-.077469c-.4300674-.096834-.7411992-.248544-.933396-.455132-.1921986-.206582-.2882976-.4938637-.288297-.8618462-.0000006-.4260775.1322544-.7617775.396765-1.0071016.2664114-.2453142.6327294-.3679742 1.0989528-.3679792.1998084.000005.4034238.020448.6108468.061329.2074188.040892.419598.1022225.6365364.1839908"/><path d="m3.5 7.4722718v6.0277282" fill="none" stroke="#000" stroke-linecap="square"/></g></g><g transform="matrix(.99949608 0 0 1.0005166 -.461871 -24.322559)"><path d="m22 48c.670129-.02638 1.150031-.656403 1.199218-1.389688.463853-6.914704.972105-12.712496.972105-12.712496.04227-.14818-.09837-.296359-.281282-.296359h-20.1357041s-1.0839751 13.092665-1.0839751 13.092665c-.06711.588005-.2730018 1.080563-.9079425 1.307485l20.2375807-.0016z" display="block" fill="url(#b)" stroke="#3465a4" stroke-linejoin="round" stroke-width=".592258"/><path d="m4.2632901 34.265001 19.2104099.039836-.922143 12.293645c-.0494.658573-.264026.877811-1.097081.877811-1.096404 0-16.8007636-.01992-18.3923648-.01992.1368518-.197177.1955282-.607628.1963136-.617456z" fill="none" opacity=".465909" stroke="url(#c)" stroke-linecap="round" stroke-width=".600059"/></g></svg>

<?xml version="1.0" encoding="UTF-8" standalone="no"?>
<!-- Created with Inkscape (http://www.inkscape.org/) -->

<svg
   xmlns:dc="http://purl.org/dc/elements/1.1/"
   xmlns:cc="http://creativecommons.org/ns#"
   xmlns:rdf="http://www.w3.org/1999/02/22-rdf-syntax-ns#"
   xmlns:svg="http://www.w3.org/2000/svg"
   xmlns="http://www.w3.org/2000/svg"
   xmlns:xlink="http://www.w3.org/1999/xlink"
   xmlns:sodipodi="http://sodipodi.sourceforge.net/DTD/sodipodi-0.dtd"
   xmlns:inkscape="http://www.inkscape.org/namespaces/inkscape"
   width="24"
   height="24"
   id="svg97"
   sodipodi:version="0.32"
   inkscape:version="0.92pre1 unknown"
   sodipodi:docname="gimp-prefs-folders-environ-24.svg"
   inkscape:output_extension="org.inkscape.output.svg.inkscape"
   version="1.1"
   viewBox="0 0 24 24">
  <defs
     id="defs3">
    <linearGradient
       id="linearGradient9766">
      <stop
         style="stop-color:#6194cb;stop-opacity:1;"
         offset="0"
         id="stop9768" />
      <stop
         style="stop-color:#729fcf;stop-opacity:1;"
         offset="1"
         id="stop9770" />
    </linearGradient>
    <linearGradient
       id="linearGradient3096">
      <stop
         id="stop3098"
         offset="0"
         style="stop-color:#424242;stop-opacity:1;" />
      <stop
         id="stop3100"
         offset="1.0000000"
         style="stop-color:#777777;stop-opacity:1.0000000;" />
    </linearGradient>
    <linearGradient
       gradientUnits="userSpaceOnUse"
       y2="6.1802502"
       x2="15.514889"
       y1="31.36775"
       x1="18.112709"
       id="linearGradient3104-5"
       xlink:href="#linearGradient3096"
       inkscape:collect="always"
       gradientTransform="matrix(0.60072171,0,0,0.60098717,-1.8322281,23.944582)" />
    <linearGradient
       inkscape:collect="always"
       xlink:href="#linearGradient9766"
       id="linearGradient9772"
       x1="22.175976"
       y1="36.987999"
       x2="22.065331"
       y2="32.050499"
       gradientUnits="userSpaceOnUse"
       gradientTransform="matrix(0.58583149,0,0,0.59874372,-1.3064445,24.343264)" />
    <linearGradient
       gradientUnits="userSpaceOnUse"
       y2="46.689312"
       x2="12.853771"
       y1="32.567184"
       x1="13.035696"
       gradientTransform="matrix(0.77184067,0,0,0.50168839,-1.8879463,23.335751)"
       id="linearGradient322-1"
       xlink:href="#linearGradient8340"
       inkscape:collect="always" />
    <linearGradient
       id="linearGradient8340">
      <stop
         id="stop8342"
         stop-color="#ffffff"
         stop-opacity="0.796078" />
      <stop
         id="stop8344"
         offset="1"
         stop-color="#ffffff"
         stop-opacity="0.215686" />
    </linearGradient>
    <linearGradient
       gradientTransform="matrix(0.52865572,0,0,0.82235256,1245.4619,280.96906)"
       y2="30.145555"
       x2="32.615303"
       y1="38.100506"
       x1="33.5"
       gradientUnits="userSpaceOnUse"
       id="linearGradient1971"
       xlink:href="#linearGradient2842" />
    <linearGradient
       id="linearGradient2842">
      <stop
         id="stop2844"
         offset="0"
         style="stop-color:#babdb6;stop-opacity:1" />
      <stop
         id="stop2846"
         offset="1"
         style="stop-color:#eeeeec;stop-opacity:1" />
    </linearGradient>
    <linearGradient
       gradientTransform="matrix(0.52865572,0,0,0.82235256,1245.4619,280.96906)"
       y2="36.6875"
       x2="32"
       y1="17.625"
       x1="29.375"
       gradientUnits="userSpaceOnUse"
       id="linearGradient1973"
       xlink:href="#linearGradient2888" />
    <linearGradient
       id="linearGradient2888">
      <stop
         stop-color="#888a85"
         id="stop2890" />
      <stop
         stop-color="#555753"
         id="stop2892"
         offset="1" />
    </linearGradient>
  </defs>
  <sodipodi:namedview
     fill="#729fcf"
     id="base"
     pagecolor="#ffffff"
     bordercolor="#666666"
     borderopacity="0.10196078"
     inkscape:pageopacity="0.0"
     inkscape:pageshadow="2"
     inkscape:zoom="11.313708"
     inkscape:cx="27.204574"
     inkscape:cy="6.3809804"
     inkscape:current-layer="svg97"
     showgrid="true"
     inkscape:grid-bbox="true"
     inkscape:document-units="px"
     inkscape:window-width="1920"
     inkscape:window-height="1016"
     inkscape:window-x="0"
     inkscape:window-y="27"
     inkscape:showpageshadow="false"
     stroke="#3465a4"
     inkscape:window-maximized="1">
    <inkscape:grid
       type="xygrid"
       id="grid4153" />
  </sodipodi:namedview>
  <metadata
     id="metadata4">
    <rdf:RDF>
      <cc:Work
         rdf:about="">
        <dc:format>image/svg+xml</dc:format>
        <dc:type
           rdf:resource="http://purl.org/dc/dcmitype/StillImage" />
        <dc:title />
        <dc:date />
        <dc:creator>
          <cc:Agent>
            <dc:title>Jakub Steiner</dc:title>
          </cc:Agent>
        </dc:creator>
        <cc:license
           rdf:resource="http://creativecommons.org/publicdomain/zero/1.0/" />
        <dc:source>http://jimmac.musichall.cz</dc:source>
        <dc:subject>
          <rdf:Bag>
            <rdf:li>folder</rdf:li>
            <rdf:li>directory</rdf:li>
          </rdf:Bag>
        </dc:subject>
      </cc:Work>
      <cc:License
         rdf:about="http://creativecommons.org/publicdomain/zero/1.0/">
        <cc:permits
           rdf:resource="http://creativecommons.org/ns#Reproduction" />
        <cc:permits
           rdf:resource="http://creativecommons.org/ns#Distribution" />
        <cc:permits
           rdf:resource="http://creativecommons.org/ns#DerivativeWorks" />
      </cc:License>
    </rdf:RDF>
  </metadata>
  <g
     id="layer1"
     inkscape:label="Folder"
     inkscape:groupmode="layer"
     transform="translate(0,-24)" />
  <g
     id="g4325">
    <path
       sodipodi:nodetypes="ccccccssssccc"
       style="fill:#ffffff;fill-opacity:1;fill-rule:nonzero;stroke:url(#linearGradient3104-5);stroke-width:0.60085434;stroke-linecap:round;stroke-linejoin:round;stroke-miterlimit:4;stroke-dasharray:none;stroke-opacity:1"
       id="path216-5"
       d="m 0.88410381,47.195223 c 0.013093,0.250194 0.27627479,0.500388 0.52635809,0.500388 H 20.229283 c 0.250082,0 0.487072,-0.250194 0.473979,-0.500388 L 20.14072,30.832305 c -0.0131,-0.250193 -0.276269,-0.500392 -0.526352,-0.500392 h -7.972102 c -0.291384,0 -0.741575,-0.189664 -0.841998,-0.665071 l -0.367276,-1.738699 c -0.0934,-0.44213 -0.5299647,-0.623756 -0.780048,-0.623756 H 0.77496292 c -0.25008813,0 -0.48707765,0.250193 -0.47398438,0.500387 z"
       inkscape:connector-curvature="0"
       transform="translate(0,-24)" />
    <rect
       y="24"
       x="0.0038544394"
       height="23.996084"
       width="23.996145"
       id="rect3965-5"
       style="color:#000000;clip-rule:nonzero;display:inline;overflow:visible;visibility:visible;opacity:0;isolation:auto;mix-blend-mode:normal;color-interpolation:sRGB;color-interpolation-filters:linearRGB;solid-color:#000000;solid-opacity:1;fill:#bebebe;fill-opacity:1;fill-rule:nonzero;stroke:none;stroke-width:0.7393803;stroke-linecap:round;stroke-linejoin:miter;stroke-miterlimit:4;stroke-dasharray:none;stroke-dashoffset:0;stroke-opacity:1;color-rendering:auto;image-rendering:auto;shape-rendering:auto;text-rendering:auto;enable-background:accumulate"
       transform="translate(0,-24)" />
    <g
       id="g9733"
       style="display:inline"
       transform="matrix(1.1248197,0,0,1.1250004,-286.38397,-46.361268)">
      <path
         inkscape:connector-curvature="0"
         style="color:#000000;display:inline;overflow:visible;visibility:visible;fill:url(#linearGradient1971);fill-opacity:1;fill-rule:evenodd;stroke:url(#linearGradient1973);stroke-width:1.1976546;stroke-linecap:round;stroke-linejoin:round;stroke-miterlimit:4;stroke-dasharray:none;stroke-dashoffset:0;stroke-opacity:1;marker:none;marker-start:none;marker-mid:none;marker-end:none"
         d="m 266.78786,41.808831 c -1.46714,0 -2.72895,1.42916 -3.22149,3.4436 -0.23837,-0.0891 -0.48756,-0.15419 -0.74342,-0.15419 -1.75091,0 -3.17193,2.21048 -3.17193,4.93411 0,2.72363 1.42102,4.93412 3.17193,4.93412 0.40854,0 0.79767,-0.14065 1.15643,-0.35978 0.57816,1.21141 1.50044,2.00449 2.54416,2.00448 0.81236,0 1.55325,-0.47705 2.11462,-1.25922 0.30989,0.27719 0.67441,0.43687 1.05731,0.43687 0.57508,0 1.08899,-0.37077 1.47032,-0.95084 0.20803,0.082 0.41996,0.12849 0.6443,0.12849 1.45908,0 2.64327,-1.84207 2.64327,-4.11176 0,-1.34066 -0.41838,-2.53865 -1.05731,-3.28941 0,-2.2697 -1.18419,-4.11177 -2.64327,-4.11177 -0.44522,0 -0.85432,0.18544 -1.22252,0.48827 -0.62731,-1.2942 -1.62091,-2.13297 -2.7424,-2.13297 z"
         id="path1934" />
      <path
         inkscape:connector-curvature="0"
         style="color:#000000;display:inline;overflow:visible;visibility:visible;fill:none;fill-opacity:1;fill-rule:evenodd;stroke:#ffffff;stroke-width:1.8400811;stroke-linecap:round;stroke-linejoin:round;stroke-miterlimit:4;stroke-dasharray:none;stroke-dashoffset:0;stroke-opacity:1;marker:none;marker-start:none;marker-mid:none;marker-end:none"
         id="path2854"
         d="m 33,21.583984 c -2.322807,0 -4.306477,1.454315 -5.080078,3.488282 a 1.0838078,1.0838078 0 0 1 -1.267578,0.667968 c -0.400612,-0.09628 -0.78649,-0.15625 -1.152344,-0.15625 -2.725648,0 -4.916016,2.190367 -4.916016,4.916016 0,2.725649 2.190369,4.916016 4.916016,4.916016 0.612912,0 1.213691,-0.134635 1.791016,-0.361328 a 1.0838078,1.0838078 0 0 1 1.267578,0.361328 c 0.899781,1.211976 2.320039,2 3.941406,2 1.263934,0 2.40534,-0.47283 3.277344,-1.253907 a 1.0838078,1.0838078 0 0 1 1.263672,-0.132812 c 0.423728,0.243657 0.928392,0.386718 1.458984,0.386719 0.788379,0 1.485054,-0.321167 2.023438,-0.847657 a 1.0838078,1.0838078 0 0 1 1.023437,-0.27539 c 0.318379,0.08062 0.625137,0.123047 0.953125,0.123047 2.173636,0 3.916016,-1.742362 3.916016,-3.916016 0,-1.279551 -0.620635,-2.418873 -1.56836,-3.134766 A 1.0838078,1.0838078 0 0 1 44.416016,27.5 c 0,-2.173656 -1.742372,-3.916016 -3.916016,-3.916016 -0.648728,0 -1.241801,0.170095 -1.806641,0.46875 a 1.0838078,1.0838078 0 0 1 -1.371093,-0.30664 C 36.3313,22.431808 34.774043,21.583984 33,21.583984 Z"
         transform="matrix(0.49612542,0,0,0.80988198,250.43197,25.318451)" />
      <g
         style="display:inline"
         id="g9939"
         transform="matrix(0.9980455,0,0,0.9980455,259.06782,39.229541)">
        <path
           inkscape:connector-curvature="0"
           id="text2858"
           d="M 5.999993,7.999994 9,8 V 9 H 7 v 1.000001 H 8 V 11 H 7 v 1.043868 L 9,12 v 1 l -3.000007,-1.3e-5 V 7.999994 m 3.974455,0 L 11,8 12.000001,10.521449 V 8 l 1.027867,7e-6 V 13 H 12.000001 L 11,10.478551 V 13 l -1.025552,-1.3e-5 V 7.999994"
           style="font-style:normal;font-weight:bold;font-size:7.7389884px;font-family:'Bitstream Vera Sans';fill:#000000;fill-opacity:1;stroke:none;stroke-width:1px;stroke-linecap:butt;stroke-linejoin:miter;stroke-opacity:1" />
        <path
           inkscape:connector-curvature="0"
           id="text2868"
           d="M 4.743101,8.24532 V 8.8812142 C 4.52426,8.7628617 4.3177898,8.6746325 4.1236916,8.6165267 3.9295886,8.5584292 3.742148,8.5293783 3.5613698,8.5293733 c -0.3139884,5e-6 -0.556614,0.068866 -0.727878,0.206585 C 2.6641286,8.8736858 2.579447,9.0695108 2.5794482,9.3234342 2.579447,9.5364783 2.6355842,9.6978725 2.7478592,9.8076183 2.862035,9.9152175 3.0770678,10.00237 3.3929588,10.069077 l 0.3482394,0.0807 c 0.4300644,0.09253 0.7469052,0.256082 0.9505236,0.490639 C 4.8972374,10.872822 4.9999964,11.184852 5,11.576501 4.9999964,12.04347 4.8610814,12.397461 4.5832538,12.638477 4.3073234,12.879492 3.9019958,12.999999 3.3672692,13 3.1655546,12.999999 2.9505218,12.974177 2.722169,12.922531 2.4957176,12.870884 2.260703,12.794491 2.0171264,12.69335 v -0.671401 c 0.2340618,0.148484 0.4633674,0.260384 0.6879162,0.335701 0.224547,0.07532 0.4452882,0.112977 0.6622266,0.112976 0.329208,1e-6 0.5832516,-0.07316 0.7621314,-0.219497 0.1788744,-0.14633 0.2683128,-0.355067 0.2683158,-0.626211 -3e-6,-0.23671 -0.064703,-0.421775 -0.1941012,-0.555196 -0.1275,-0.133417 -0.3377754,-0.233481 -0.630828,-0.300194 L 3.221693,10.692059 C 2.7916256,10.595225 2.4804938,10.443515 2.288297,10.236927 2.0960984,10.030345 1.9999994,9.7430633 2,9.3750808 1.9999994,8.9490033 2.1322544,8.6133033 2.396765,8.3679792 2.6631764,8.122665 3.0294944,8.000005 3.4957178,8 c 0.1998084,5e-6 0.4034238,0.020448 0.6108468,0.061329 0.2074188,0.040892 0.419598,0.1022225 0.6365364,0.1839908"
           style="font-style:normal;font-weight:normal;font-size:10px;font-family:'Bitstream Vera Sans';fill:#000000;fill-opacity:1;stroke:none;stroke-width:1px;stroke-linecap:butt;stroke-linejoin:miter;stroke-opacity:1" />
        <path
           inkscape:connector-curvature="0"
           id="path2876"
           d="M 3.5,7.4722718 V 13.5"
           style="fill:none;fill-opacity:0.75;fill-rule:evenodd;stroke:#000000;stroke-width:1px;stroke-linecap:square;stroke-linejoin:miter;stroke-opacity:1" />
      </g>
    </g>
    <g
       transform="matrix(0.99949608,0,0,1.0005166,-0.46187136,-24.322559)"
       id="g4420">
      <path
         inkscape:connector-curvature="0"
         style="color:#000000;display:block;visibility:visible;fill:url(#linearGradient9772);fill-opacity:1;fill-rule:nonzero;stroke:#3465a4;stroke-width:0.59225792;stroke-linecap:butt;stroke-linejoin:round;stroke-miterlimit:4;stroke-dasharray:none;stroke-dashoffset:0;stroke-opacity:1;marker:none;marker-start:none;marker-mid:none;marker-end:none"
         d="m 22,48 c 0.670129,-0.02638 1.150031,-0.656403 1.199218,-1.389688 0.463853,-6.914704 0.972105,-12.712496 0.972105,-12.712496 0.04227,-0.14818 -0.09837,-0.296359 -0.281282,-0.296359 H 3.7543369 c 0,0 -1.0839751,13.092665 -1.0839751,13.092665 -0.06711,0.588005 -0.2730018,1.080563 -0.9079425,1.307485 L 22,48.000007 Z"
         id="path233-5"
         sodipodi:nodetypes="cscccscc"
         inkscape:export-filename="/home/jimmac/ximian_art/icons/nautilus/suse93/gnome-fs-directory.png"
         inkscape:export-xdpi="74.800003"
         inkscape:export-ydpi="74.800003" />
      <path
         inkscape:connector-curvature="0"
         sodipodi:nodetypes="ccsscsc"
         id="path304-3"
         d="M 4.2632901,34.265001 23.4737,34.304837 22.551557,46.598482 c -0.0494,0.658573 -0.264026,0.877811 -1.097081,0.877811 -1.096404,0 -16.8007636,-0.01992 -18.3923648,-0.01992 0.1368518,-0.197177 0.1955282,-0.607628 0.1963136,-0.617456 z"
         style="opacity:0.46590911;fill:none;fill-opacity:1;fill-rule:evenodd;stroke:url(#linearGradient322-1);stroke-width:0.60005915px;stroke-linecap:round;stroke-linejoin:miter;stroke-opacity:1" />
    </g>
  </g>
</svg>
